public/images/very-popular.svg

<svg width="109" height="101" viewBox="0 0 109 101" fill="none" xmlns="http://www.w3.org/2000/svg">
<path d="M1.66072 35.4413C7.77545 12.6208 31.2321 -0.921932 54.0526 5.1928L76.5529 11.2217C99.3734 17.3365 112.916 40.7931 106.801 63.6136C100.687 86.4341 77.23 99.9768 54.4095 93.8621L31.9092 87.8331C9.0887 81.7184 -4.45402 58.2618 1.66072 35.4413Z" fill="#FFDFA1"/>
<path d="M46.756 14.9085L48.8678 14.6466L45.9411 24.4897L45.3159 24.5672L40.0593 15.7391L42.185 15.4754L45.1667 20.7485L46.756 14.9085Z" fill="#FFB36D"/>
<path d="M53.2 23.9077L54.37 14.7421L60.536 15.5291L60.3197 17.2234L56.0285 16.6756L55.791 18.5365L58.9434 18.9389L58.7395 20.536L55.5871 20.1336L55.2911 22.4528L59.7489 23.0218L59.5326 24.716L53.2 23.9077Z" fill="#FFB36D"/>
<path d="M69.7296 28.2798L67.7544 27.488L66.7461 23.5694L65.4597 23.0537L64.2459 26.0815L62.4916 25.3782L65.9298 16.8017L69.1525 18.0936C70.0534 18.4548 70.6917 19.0073 71.0672 19.7511C71.4427 20.4949 71.4655 21.2783 71.1356 22.1013C70.9203 22.6385 70.5915 23.0698 70.1493 23.3953C69.7192 23.7156 69.2191 23.8972 68.6489 23.9401L69.7296 28.2798ZM67.0642 19.0513L66.0796 21.5073L67.548 22.096C67.9551 22.2592 68.3165 22.2734 68.632 22.1384C68.9562 22.0069 69.193 21.755 69.3423 21.3824C69.4882 21.0186 69.485 20.6754 69.3327 20.3529C69.1891 20.0339 68.9224 19.7963 68.5326 19.64L67.0642 19.0513Z" fill="#FFB36D"/>
<path d="M83.243 26.3203L77.3706 28.9611L75.2202 31.898L73.6952 30.7815L75.8374 27.8559L76.5786 21.4405L78.2729 22.6812L77.7551 26.8482L81.56 25.088L83.243 26.3203Z" fill="#FFB36D"/>
<path d="M15.6545 62.4093L23.2796 57.1905L25.2406 60.0557C25.7889 60.8567 26.0124 61.6708 25.9111 62.4978C25.8099 63.3249 25.3934 63.9888 24.6617 64.4896C23.9377 64.9851 23.1681 65.133 22.3528 64.9333C21.5374 64.7335 20.8557 64.2331 20.3074 63.4321L19.4139 62.1266L16.722 63.969L15.6545 62.4093ZM20.7772 61.1935L21.6707 62.499C21.9185 62.861 22.211 63.0736 22.5483 63.1368C22.8986 63.2025 23.2393 63.1219 23.5705 62.8953C23.894 62.6739 24.0821 62.3868 24.1347 62.0341C24.1927 61.6891 24.103 61.3433 23.8658 60.9967L22.9723 59.6912L20.7772 61.1935Z" fill="#FFB36D"/>
<path d="M24.538 67.1801C25.3779 66.1669 26.4761 65.6131 27.8324 65.5189C29.1958 65.4307 30.3761 65.8304 31.3733 66.7179C32.4068 67.5629 32.9874 68.6655 33.1151 70.0258C33.2498 71.3922 32.883 72.5699 32.0147 73.5589C31.1748 74.5722 30.0695 75.1199 28.699 75.202C27.3356 75.2902 26.1553 74.8905 25.1581 74.0029C24.1246 73.158 23.544 72.0554 23.4163 70.6951C23.2958 69.3408 23.6697 68.1692 24.538 67.1801ZM30.5343 72.2959C31.1037 71.6284 31.3566 70.8934 31.293 70.0908C31.2426 69.2871 30.8943 68.6096 30.2481 68.0584C29.5949 67.501 28.8705 67.2572 28.075 67.3269C27.2794 67.3965 26.5939 67.7686 26.0184 68.4432C25.4429 69.1177 25.1835 69.8533 25.24 70.6499C25.2965 71.4464 25.6513 72.1234 26.3046 72.6807C26.9507 73.2319 27.6715 73.4727 28.4671 73.4031C29.2697 73.3395 29.9588 72.9704 30.5343 72.2959Z" fill="#FFB36D"/>
<path d="M33.4871 79.8119L37.4424 71.4613L40.5802 72.9475C41.4575 73.363 42.0608 73.9534 42.3902 74.7188C42.7197 75.4841 42.6946 76.2675 42.315 77.0688C41.9395 77.8617 41.3493 78.3773 40.5444 78.6157C39.7396 78.8542 38.8985 78.7656 38.0213 78.3501L36.5915 77.6729L35.1952 80.621L33.4871 79.8119ZM37.2987 76.1799L38.7284 76.8571C39.1249 77.0449 39.4847 77.0811 39.8079 76.9656C40.1435 76.8458 40.3972 76.6045 40.569 76.2418C40.7368 75.8875 40.7545 75.5448 40.6222 75.2136C40.4984 74.8864 40.2466 74.6329 39.8671 74.4531L38.4373 73.776L37.2987 76.1799Z" fill="#FFB36D"/>
<path d="M45.3719 80.593L46.3877 75.2711L48.2442 75.6255L47.2022 81.0849C47.0779 81.7358 47.1642 82.2796 47.4609 82.7163C47.7593 83.1439 48.2065 83.4145 48.8024 83.5283C49.4075 83.6437 49.9229 83.5568 50.3487 83.2675C50.7854 82.9708 51.0659 82.497 51.1902 81.8461L52.2322 76.3866L54.0887 76.741L53.0729 82.0629C52.8472 83.2456 52.3039 84.1253 51.4432 84.7022C50.5824 85.279 49.5928 85.4607 48.4743 85.2472C47.3467 85.032 46.489 84.4977 45.9012 83.6444C45.3226 82.7928 45.1462 81.7757 45.3719 80.593Z" fill="#FFB36D"/>
<path d="M56.4913 85.9078L56.0445 76.6786L57.9323 76.5872L58.2965 84.1104L62.3377 83.9148L62.4203 85.6208L56.4913 85.9078Z" fill="#FFB36D"/>
<path d="M71.464 83.5869L70.6413 82.5666L67.0006 83.5833L66.8255 84.8823L64.8704 85.4284L66.3175 75.2562L66.9243 75.0867L73.4192 83.0408L71.464 83.5869ZM69.5895 81.2468L67.5631 78.5713L67.2163 81.9096L69.5895 81.2468Z" fill="#FFB36D"/>
<path d="M83.9428 77.6341L82.0958 78.6909L78.3979 77.0484L77.1949 77.7367L78.8149 80.5681L77.1744 81.5067L72.5857 73.4866L75.5993 71.7624C76.4418 71.2803 77.2712 71.123 78.0874 71.2904C78.9037 71.4578 79.5319 71.9263 79.9723 72.6959C80.2596 73.1982 80.3936 73.7237 80.3743 74.2725C80.3583 74.8085 80.1902 75.3133 79.8698 75.7869L83.9428 77.6341ZM75.0535 73.994L76.3675 76.2907L77.7407 75.5051C78.1214 75.2872 78.3569 75.0127 78.447 74.6816C78.5452 74.3458 78.4947 74.0037 78.2953 73.6554C78.1007 73.3152 77.8297 73.1046 77.4823 73.0238C77.1431 72.9383 76.7912 72.9998 76.4266 73.2084L75.0535 73.994Z" fill="#FFB36D"/>
<g clip-path="url(#clip0)">
<path d="M64.6111 55.966C64.6117 55.9628 64.6124 55.9595 64.613 55.9564C64.8734 54.6009 64.9308 53.4059 64.793 52.2C64.7916 52.182 64.7898 52.1639 64.7874 52.1458C64.7787 52.08 63.9418 45.5366 65.9415 42.5996C66.122 42.3347 66.1592 41.9975 66.0411 41.6995C65.923 41.4015 65.6651 41.1819 65.3519 41.1121C65.268 41.0935 63.5526 40.7344 61.337 41.8314C60.6353 38.1734 61.3092 34.6674 61.3167 34.6292C61.3826 34.2982 61.2712 33.9569 61.0226 33.7286C60.7741 33.5002 60.4245 33.4183 60.1003 33.5119C57.2232 34.3442 54.8211 35.6571 52.9608 37.4142C51.4586 38.8329 50.3102 40.5369 49.5473 42.4787C48.9172 44.0826 48.6572 45.5774 48.5578 46.703L45.5848 44.4423C45.3663 44.2762 45.0875 44.2106 44.8177 44.2625C44.5481 44.3142 44.3132 44.4782 44.1717 44.7133C43.7503 45.4135 43.3992 46.0709 43.098 46.723C42.0494 48.9943 41.5639 51.4781 41.6937 53.9062C41.8243 56.3471 42.5695 58.6187 43.8489 60.4754C45.1881 62.4188 47.024 63.8058 49.2236 64.5793C49.4256 64.658 49.6332 64.7273 49.8473 64.7846C49.8919 64.7966 49.9375 64.8067 49.9826 64.8176C50.0194 64.8279 50.0561 64.8385 50.0931 64.8485C51.5208 65.231 53.0832 65.3723 54.7482 65.2582C57.3892 65.0772 59.7448 63.9483 61.5604 61.9937C63.0694 60.369 64.1529 58.2283 64.6111 55.966ZM55.9798 59.5899C55.6154 60.9067 54.115 62.9211 52.0515 63.0625C51.495 63.1007 50.9791 63.0645 50.5082 62.9572C50.2888 62.8961 50.0733 62.8281 49.8617 62.7532C49.2069 62.4832 48.6647 62.0468 48.2543 61.4513C47.3962 60.2059 47.2596 58.4209 47.8778 56.8131C48.6256 57.3521 49.7148 57.8041 51.1649 57.7955C53.4971 57.7819 54.9476 55.6621 55.7537 53.8863C55.8069 53.7691 55.8579 53.6522 55.907 53.5359C56.5833 56.5625 56.3264 58.337 55.9798 59.5899ZM60.144 60.6782C58.9828 61.9284 57.6021 62.7454 56.0266 63.1181C56.8933 62.2457 57.5522 61.1557 57.8428 60.1053C58.6212 57.2913 58.3178 54.1279 56.859 49.8481C56.7174 49.4328 56.3139 49.1647 55.8761 49.1959C55.4383 49.2269 55.0764 49.5488 54.9947 49.98C54.7062 51.502 53.3814 55.8497 51.1536 55.8626C49.257 55.8739 48.5339 54.803 48.4651 54.6936C48.3029 54.3824 47.992 54.1977 47.6405 54.1884C47.2866 54.1793 46.9638 54.3788 46.7866 54.6853C46.7515 54.7461 46.4384 55.2898 46.2703 55.6536C45.68 56.9324 45.4587 58.3025 45.595 59.5952C45.5428 59.5238 45.491 59.4519 45.4405 59.3785C44.3635 57.8156 43.7353 55.8876 43.6238 53.8029C43.5108 51.6879 43.9358 49.5198 44.8529 47.5333C44.9874 47.2421 45.1335 46.9487 45.2935 46.6492L48.9093 49.3985C49.215 49.631 49.6291 49.6593 49.9645 49.4723C50.2999 49.2855 50.4928 48.9165 50.4562 48.5344C50.4537 48.5092 50.2273 45.9805 51.3764 43.11C52.041 41.4497 53.0335 39.9941 54.3264 38.7834C55.64 37.5533 57.2747 36.5681 59.1999 35.8447C59.0232 37.622 58.9276 40.6335 59.7705 43.5984C59.8561 43.8995 60.0823 44.1406 60.3775 44.2451C60.6723 44.349 61 44.3048 61.2561 44.1246C62.1311 43.5092 62.9251 43.2133 63.5507 43.0769C62.1989 46.677 62.7932 51.7842 62.8657 52.357C62.8666 52.3662 62.8675 52.3755 62.8686 52.3846C62.9883 53.4006 62.9397 54.4182 62.7156 55.5869C62.3265 57.5036 61.4133 59.3116 60.144 60.6782Z" fill="#FFB36D"/>
</g>
<defs>
<clipPath id="clip0">
<rect width="33" height="33" fill="white" transform="translate(42.7314 28.7148) rotate(15)"/>
</clipPath>
</defs>
</svg>

<svg width="109" height="101" fill="none" xmlns="http://www.w3.org/2000/svg"><path d="M1.66 35.441C7.776 12.621 31.233-.922 54.054 5.193l22.5 6.029c22.82 6.115 36.363 29.571 30.248 52.392-6.114 22.82-29.571 36.363-52.392 30.248l-22.5-6.029C9.09 81.718-4.454 58.262 1.661 35.441z" fill="#FFDFA1"/><path d="M46.756 14.909l2.112-.262-2.927 9.843-.625.077-5.257-8.828 2.126-.264 2.982 5.274 1.589-5.84zm6.444 8.999l1.17-9.166 6.166.787-.216 1.694-4.291-.547-.238 1.86 3.152.403-.203 1.597-3.153-.402-.296 2.319 4.458.569-.216 1.694-6.333-.808zm16.53 4.372l-1.976-.792-1.008-3.919-1.286-.515-1.214 3.027-1.754-.703 3.438-8.576 3.222 1.292c.901.36 1.54.913 1.915 1.657.376.744.399 1.527.069 2.35a2.915 2.915 0 01-.987 1.294c-.43.32-.93.502-1.5.545l1.08 4.34zm-2.666-9.229l-.984 2.456 1.468.589c.407.163.769.177 1.084.042.324-.131.561-.383.71-.756.146-.363.143-.707-.01-1.03-.143-.318-.41-.556-.8-.712l-1.468-.589zm16.179 7.269l-5.872 2.641-2.15 2.937-1.526-1.116 2.142-2.926.742-6.416 1.694 1.241-.518 4.167 3.805-1.76 1.683 1.232zM15.655 62.41l7.625-5.22 1.96 2.866c.549.8.772 1.615.671 2.442-.101.827-.518 1.49-1.25 1.992-.723.495-1.493.643-2.308.443-.816-.2-1.497-.7-2.046-1.5l-.893-1.306-2.692 1.842-1.068-1.56zm5.122-1.216l.894 1.305c.248.362.54.575.877.638.35.066.691-.015 1.023-.242.323-.221.511-.508.564-.86.058-.346-.032-.692-.27-1.038l-.893-1.306-2.195 1.502zm3.761 5.986c.84-1.013 1.938-1.567 3.294-1.661 1.364-.088 2.544.311 3.541 1.199 1.034.845 1.614 1.947 1.742 3.308.135 1.366-.232 2.544-1.1 3.533-.84 1.013-1.945 1.56-3.316 1.643-1.363.088-2.544-.311-3.54-1.2-1.034-.844-1.615-1.947-1.743-3.307-.12-1.354.254-2.526 1.122-3.515zm5.996 5.116c.57-.668.823-1.403.759-2.205-.05-.804-.399-1.481-1.045-2.033-.653-.557-1.378-.8-2.173-.731-.796.07-1.481.442-2.057 1.116-.575.675-.835 1.41-.778 2.207.057.796.411 1.473 1.065 2.03.646.552 1.367.793 2.162.723.803-.064 1.492-.433 2.067-1.107zm2.953 7.516l3.955-8.35 3.138 1.486c.878.415 1.48 1.005 1.81 1.77.33.766.305 1.55-.075 2.35-.375.794-.966 1.31-1.77 1.548-.805.238-1.647.15-2.524-.266l-1.43-.677-1.396 2.948-1.708-.81zM37.3 76.18l1.43.677c.396.188.756.224 1.079.109.336-.12.59-.361.761-.724.168-.355.185-.697.053-1.028-.124-.328-.375-.581-.755-.76l-1.43-.678L37.3 76.18zm8.072 4.413l1.016-5.322 1.856.355-1.042 5.459c-.124.65-.038 1.195.259 1.631.298.428.745.699 1.341.812.605.116 1.12.029 1.547-.26.436-.297.717-.771.841-1.422l1.042-5.46 1.857.355-1.016 5.322c-.226 1.183-.77 2.062-1.63 2.64-.86.576-1.85.758-2.969.544-1.127-.215-1.985-.75-2.573-1.603-.578-.851-.755-1.868-.53-3.051zm11.119 5.315l-.447-9.23 1.888-.09.364 7.522 4.042-.195.082 1.706-5.929.287zm14.973-2.321l-.823-1.02-3.64 1.016-.175 1.3-1.956.545 1.447-10.172.607-.17 6.495 7.955-1.955.546zm-1.874-2.34l-2.027-2.676-.347 3.339 2.374-.663zm14.353-3.613l-1.847 1.057-3.698-1.643-1.203.689 1.62 2.831-1.64.939-4.59-8.02 3.014-1.725c.843-.482 1.672-.639 2.488-.472.817.168 1.445.636 1.885 1.406.288.502.422 1.028.402 1.576a2.81 2.81 0 01-.504 1.515l4.073 1.847zm-8.89-3.64l1.315 2.297 1.373-.786c.38-.218.616-.492.706-.823.098-.336.048-.678-.152-1.027-.194-.34-.465-.55-.813-.631-.339-.086-.69-.024-1.055.184l-1.374.786z" fill="#FFB36D"/><g clip-path="url(#clip0)"><path d="M64.611 55.966l.002-.01c.26-1.355.318-2.55.18-3.756a1.005 1.005 0 00-.006-.054c-.008-.066-.845-6.61 1.154-9.546a.966.966 0 00-.59-1.488c-.083-.019-1.798-.378-4.014.72-.702-3.659-.028-7.165-.02-7.203a.966.966 0 00-1.217-1.117c-2.877.832-5.279 2.145-7.14 3.902a13.902 13.902 0 00-3.413 5.065 15.313 15.313 0 00-.99 4.224l-2.972-2.26a.966.966 0 00-1.413.27c-.422.7-.773 1.358-1.074 2.01-1.049 2.271-1.534 4.755-1.404 7.183.13 2.441.875 4.713 2.155 6.57a10.77 10.77 0 005.375 4.103c.202.079.41.148.623.206.045.012.09.022.136.033l.11.03c1.428.383 2.99.524 4.655.41 2.641-.18 4.997-1.31 6.812-3.264 1.51-1.625 2.593-3.766 3.051-6.028zM55.98 59.59c-.365 1.317-1.865 3.331-3.928 3.472a5.304 5.304 0 01-1.544-.105 9.881 9.881 0 01-.646-.204 3.582 3.582 0 01-1.608-1.302c-.858-1.245-.994-3.03-.376-4.638.748.54 1.837.991 3.287.982 2.332-.013 3.783-2.133 4.589-3.909.053-.117.104-.234.153-.35.676 3.026.42 4.801.073 6.054zm4.164 1.088c-1.161 1.25-2.542 2.067-4.117 2.44.866-.872 1.525-1.962 1.816-3.013.778-2.814.475-5.977-.984-10.257a.966.966 0 00-1.864.132c-.289 1.522-1.614 5.87-3.841 5.883-1.897.01-2.62-1.06-2.689-1.17a.942.942 0 00-.825-.505.967.967 0 00-.853.497c-.035.061-.349.605-.517.969a7.55 7.55 0 00-.675 3.941 9.276 9.276 0 01-.154-.216c-1.078-1.563-1.706-3.491-1.817-5.576-.113-2.115.312-4.283 1.229-6.27.134-.29.28-.584.44-.884l3.616 2.75a.966.966 0 001.547-.865c-.002-.025-.229-2.553.92-5.424a11.979 11.979 0 012.95-4.327c1.314-1.23 2.949-2.215 4.874-2.938-.177 1.777-.272 4.788.57 7.753a.966.966 0 001.486.527c.875-.616 1.67-.912 2.295-1.048-1.352 3.6-.758 8.707-.685 9.28 0 .01.002.019.003.028.12 1.016.07 2.033-.153 3.202-.39 1.917-1.303 3.725-2.572 5.091z" fill="#FFB36D"/></g><defs><clipPath id="clip0"><path fill="#fff" transform="rotate(15 -87.69 176.646)" d="M0 0h33v33H0z"/></clipPath></defs></svg>
